icon_installer/data/icons/scalable/actions/show-clipboard-symbolic.svg

<?xml version="1.0" encoding="UTF-8"?>
<svg height="16px" viewBox="0 0 16 16" width="16px" xmlns="http://www.w3.org/2000/svg">
    <path d="m 7.5 0 c -0.277344 0 -0.5 0.222656 -0.5 0.5 v 0.5 h -1.5 c -0.277344 0 -0.5 0.222656 -0.5 0.5 v 3 c 0 0.277344 0.222656 0.5 0.5 0.5 h 5 c 0.277344 0 0.5 -0.222656 0.5 -0.5 v -3 c 0 -0.277344 -0.222656 -0.5 -0.5 -0.5 h -1.5 v -0.5 c 0 -0.277344 -0.222656 -0.5 -0.5 -0.5 z m -3.5 1 c -1.644531 0 -3 1.355469 -3 3 v 9 c 0 1.644531 1.355469 3 3 3 h 8 c 1.644531 0 3 -1.355469 3 -3 v -9 c 0 -1.644531 -1.355469 -3 -3 -3 v 2 c 0.570312 0 1 0.429688 1 1 v 9 c 0 0.570312 -0.429688 1 -1 1 h -8 c -0.570312 0 -1 -0.429688 -1 -1 v -9 c 0 -0.570312 0.429688 -1 1 -1 z m 0.011719 5.015625 v 5.96875 h 6 l 1.988281 -1.984375 l -0.023438 -3.984375 z m 0 0" fill="#222222"/>
</svg>

<svg xmlns="http://www.w3.org/2000/svg" width="16" height="16"><path fill="#222" d="M7.5 0c-.277 0-.5.223-.5.5V1H5.5c-.277 0-.5.223-.5.5v3c0 .277.223.5.5.5h5c.277 0 .5-.223.5-.5v-3c0-.277-.223-.5-.5-.5H9V.5c0-.277-.223-.5-.5-.5zM4 1C2.355 1 1 2.355 1 4v9c0 1.645 1.355 3 3 3h8c1.645 0 3-1.355 3-3V4c0-1.645-1.355-3-3-3v2c.57 0 1 .43 1 1v9c0 .57-.43 1-1 1H4c-.57 0-1-.43-1-1V4c0-.57.43-1 1-1zm.012 5.016v5.968h6L12 10l-.023-3.984zm0 0"/></svg>
